svgs/xhs.svg

<svg xmlns="http://www.w3.org/2000/svg" viewBox="0 0 192 192"><path fill="none" stroke="#000" stroke-linecap="round" stroke-linejoin="round" stroke-width="12" d="M42.5 71.5c0 14.7.1 29.5.1 44.2-1.4 1.9-3.7 2.9-5.9 2.5-2.1-.3-3.3-1.8-3.7-2.2m-7.8-31.5c-1.1 8.4-2.1 16.8-3.2 25.1m38.1-24.1c1.1 7.8 2.2 15.6 3.3 23.5m20-38.8c-2.5 5.2-5 10.4-7.6 15.7 3.5 0 7 .1 10.5.1-2.5 5.7-4.9 11.4-7.4 17.1 3 0 6-.1 9-.1M74 117.6h8.9m17.7-43.1c3 0 6 0 9-.1 2.9 0 5.8 0 8.7-.1m-8.8 2.3c0 13.5-.1 27-.1 40.5m-12.8.6c8.1.1 16.1.2 24.2.2m11.1-43.7c5.4 0 10.9 0 16.3.1.6 0 4.6-.2 7.3 2.8 1.2 1.3 1.7 2.8 1.9 3.7 0 4.5.1 8.9.1 13.4m-31.3 1 34.9-.3c.5 0 4 0 6.5 2.7 2 2.1 2.2 4.6 2.2 5.4 0 4.8-.1 9.7-.1 14.5-2.7.1-5.3.1-8 .2m-22.4-49.5c.2 17.4.4 34.8.5 52.2M170 77.5c-.4-.5-.7-.9-1.1-1.4"/></svg>

<svg version="1.1" xmlns="http://www.w3.org/2000/svg" x="0" y="0" viewBox="0 0 192 192" xml:space="preserve"><style>.prefix__st0{fill:none;stroke:#000;stroke-width:12;stroke-linecap:round;stroke-linejoin:round}</style><path class="prefix__st0" d="M42.5 71.5c0 14.7.1 29.5.1 44.2-1.4 1.9-3.7 2.9-5.9 2.5-2.1-.3-3.3-1.8-3.7-2.2M25.2 84.5c-1.1 8.4-2.1 16.8-3.2 25.1M60.1 85.5c1.1 7.8 2.2 15.6 3.3 23.5M83.4 70.2c-2.5 5.2-5 10.4-7.6 15.7 3.5 0 7 .1 10.5.1-2.5 5.7-4.9 11.4-7.4 17.1 3 0 6-.1 9-.1M74 117.6h8.9M100.6 74.5c3 0 6 0 9-.1 2.9 0 5.8 0 8.7-.1M109.5 76.6c0 13.5-.1 27-.1 40.5M96.6 117.7c8.1.1 16.1.2 24.2.2M131.9 74.2c5.4 0 10.9 0 16.3.1.6 0 4.6-.2 7.3 2.8 1.2 1.3 1.7 2.8 1.9 3.7 0 4.5.1 8.9.1 13.4M126.2 95.2l34.9-.3c.5 0 4 0 6.5 2.7 2 2.1 2.2 4.6 2.2 5.4 0 4.8-.1 9.7-.1 14.5-2.7.1-5.3.1-8 .2M139.3 68.2c.2 17.4.4 34.8.5 52.2M170 77.5c-.4-.5-.7-.9-1.1-1.4"/></svg>
